!!!COM: Mozart, Wolfgang Amadeus
!!!OTL: String Quartet no. 19 in C Major ("Dissonance")
!!!OMD: Allegro molto
!!!OMV: 4
!!!SCT1: K<sup>1</sup> 465
!!!SCA: Chronologisch-thematisches Verzeichnis sämtlicher Tonwerke Wolfgang Amade Mozarts (L. von Köchel; 1862, 2/1905, 3/1937, 1947)
!!!SCT2: K<sup>6</sup> 465
!!!YOR: Breitkopf & Härtel Edition
!!!ENC: Frances Bennion
!!!CDT: 1756/1/27/-1791/12/5/
!!!OCY: Österreich
!!!YEC: Copyright (c) 1994, 2000 Center for Computer Assisted Research in the Humanities
!!!YEM: Rights to all derivative editions reserved.
!!!YEM: Refer to licensing agreement for further details.
!!!YEN: United States of America
**kern	**kern	**kern	**kern
*k[]	*k[]	*k[]	*k[]
*C:	*C:	*C:	*C:
*clefC	*clefF	*clefG	*clefG
*M2/4	*M2/4	*M2/4	*M2/4
4r	4r	4r	4r
4r	4r	4r	8gg
.	.	.	8gg
=1	=1	=1	=1
4c	8e	8g	4.gg
.	8c	8e	.
4r	8e	8g	.
.	8r	8r	8ccc
=2	=2	=2	=2
4G	8d	8f	4.bb
.	8B	8d	.
4r	8d	8f	.
.	8r	8r	8ff
=3	=3	=3	=3
8C	2r	8r	8ee
8E	.	8g	8cc
8F	.	8c	8a
8F#	.	8a	8dd
=4	=4	=4	=4
4G	8r	8e	8cc
.	8g	8d	8b
4r	8f#	4r	8g
.	8f	.	8g
=5	=5	=5	=5
2r	8e	8g	8cc
.	8e	8g	8cc
.	8e	8g	8cc#
.	8e	8g	8cc#
=6	=6	=6	=6
2r	8B	8g	8dd
.	8B	8g	8dd
.	8B	8g	8dd#
.	8B	8g	8dd#
=7	=7	=7	=7
8r	8c	8g	8ee
8B-	8e	4cc	8gg
8A	8f	.	8ff
8F	8c	8cc	8aa
=8	=8	=8	=8
4G	4g	8cc	8ee
.	.	8b	8dd
4r	4r	4r	8gg
.	.	.	8gg
=9	=9	=9	=9
8C	16c	16e	4.gg
.	16G	16c	.
8C	16c	16e	.
.	16G	16c	.
8C	8c	8e	.
8r	8r	8r	8ccc
=10	=10	=10	=10
8G	16d	16f	4.bb
.	16B	16d	.
8G	16d	16f	.
.	16B	16d	.
8G	8d	8f	.
8r	8r	8r	8ff
=11	=11	=11	=11
8c	2r	8r	8ee
8E	.	8g	8cc
8F	.	8c	8a
8F#	.	8a	8dd
=12	=12	=12	=12
8G	4r	8e	8cc
8F	.	8d	8b
8E	8G	8c	8cc
8E	8G	8c	8cc
=13	=13	=13	=13
8F	8A	8c	8dd
8F	8A	8c	8dd
8G	8B-	8c	8ee
8G	8B-	8c	8ee
=14	=14	=14	=14
8A	8c	8cc	8ff
8A	8c	8cc	8ff
8A-	8d	8cc	8ff#
8A-	8d	8cc	8ff#
=15	=15	=15	=15
8G	8e	4cc	8gg
8G	8c	.	8ee
8G	8g	8dd	8ff
8G	8g	16cc	16ee
.	.	16b	16dd
=16	=16	=16	=16
8C	8e	8cc	8cc
8r	8r	8r	8r
8C	8c	8c	8c
8C	8c	8c	8c
=17	=17	=17	=17
8BB	8B	8B	8B
4.r	4.r	4.r	8r
.	.	.	8ff
.	.	.	8ff
=18	=18	=18	=18
8GG	4r	4r	8ff
8G	.	.	16gg
.	.	.	16aa
8G	8d	8f	16gg
.	.	.	16ff
8G	8d	8f	16ee
.	.	.	16dd
=19	=19	=19	=19
8G	4.d	8f	8cc
8G	.	16g	4b
.	.	16a	.
8G	.	16g	.
.	.	16f	.
8G	8e	16e	8cc
.	.	16d	.
=20	=20	=20	=20
8G	8f	8c	8cc#
8r	8r	8B	8dd
8C	8c	8c	8c
8C	8c	8c	8c
=21	=21	=21	=21
8BB	8B	8B	8B
4.r	4.r	4.r	8r
.	.	.	8ff
.	.	.	8ff
=22	=22	=22	=22
8GG	4r	4r	8ff
8G	.	.	16gg
.	.	.	16aa
8G	8d	8f	16gg
.	.	.	16ff
8G	8d	8f	16ee
.	.	.	16dd
=23	=23	=23	=23
8G	4.d	8f	8cc
8G	.	16g	4b
.	.	16a	.
8G	.	16g	.
.	.	16f	.
8G	8e	16e	8cc
.	.	16d	.
=24	=24	=24	=24
8G	8f#	8c	8ee
4.r	8g	8B	8dd
.	4r	4r	8gg
.	.	.	8gg
=25	=25	=25	=25
4c	8e	8g	4.gg
.	8c	8e	.
4r	8e	8g	.
.	8r	8r	8ccc
=26	=26	=26	=26
4G	8d	8f	4.bb
.	8B	8d	.
4r	8d	8f	.
.	8r	8r	8ff
=27	=27	=27	=27
8C	2r	8r	8ee
8E	.	8g	8cc
8F	.	8c	8a
8F#	.	8a	8dd
=28	=28	=28	=28
8G	4.r	8d	8b
8G#	.	8b	8ee
8A	.	8e	8cc
8AA	8c	8cc	8ff
=29	=29	=29	=29
4BB	8f	8g	8dd
.	8d	8ff	8gg
4r	4r	4r	4r
=30	=30	=30	=30
2r	2r	2r	4r
.	.	.	8gg
.	.	.	8gg
=31	=31	=31	=31
8c	8e	8cc	4.gg
8c	8e	8cc	.
8c	8e	8cc	.
8r	8r	8r	8gg#
=32	=32	=32	=32
8F	8d	8cc	4.aa
8F	8d	8cc	.
8F	8d	8cc	.
8r	8r	8r	16ff
.	.	.	16dd
=33	=33	=33	=33
8G	4.g	16e	4.cc
.	.	16g	.
8G	.	16e	.
.	.	16g	.
8G	.	16e	.
.	.	16g	.
8G	8B	16f	8dd
.	.	16g	.
=34	=34	=34	=34
8C	8c	8e	8cc
8r	8r	8r	8r
8C	8c	8c	8c
8C	8c	8c	8c
=35	=35	=35	=35
8GG	8G	8G	8G
8r	8r	8r	8r
8E	8e	8e	8e
8E	8e	8e	8e
=36	=36	=36	=36
8C	8c	8c	8c
8G	8g	8g	8g
8E	8e	8e	8e
8c	8cc	8cc	8cc
=37	=37	=37	=37
8G	8g	8g	8g
8e	8e	8ee	8ee
4r	8c	8cc	8cc
.	8g	8gg	8gg
=38	=38	=38	=38
2r	8e	8ee	8ee
.	8cc	8cc	8ccc
.	4r	8g	8gg
.	.	8ee	8eee
=39	=39	=39	=39
8D	16G#	16B	2fff
.	16G#	16B	.
8D	16G#	16B	.
.	16G#	16B	.
8D	16G#	16B	.
.	16G#	16B	.
8D	16G#	16B	.
.	16G#	16B	.
=40	=40	=40	=40
8D	16G#	16B	2f
.	16G#	16B	.
8D	16G#	16B	.
.	16G#	16B	.
8D	16G#	16B	.
.	16G#	16B	.
8D	16G#	16B	.
.	16G#	16B	.
=41	=41	=41	=41
4C	8A	8c	8e
.	4ee	4aa	8cc
4A	.	.	8a
.	[8cc	[8ee	8ee
=42	=42	=42	=42
4E	8cc]	8ee]	8cc
.	4a	4cc	8aa
4c	.	.	8ee
.	8e	8a	8ccc
=43	=43	=43	=43
8C	16F#	16A	2eee-
.	16F#	16A	.
8C	16F#	16A	.
.	16F#	16A	.
8C	16F#	16A	.
.	16F#	16A	.
8C	16F#	16A	.
.	16F#	16A	.
=44	=44	=44	=44
8C	16F#	16A	2e-
.	16F#	16A	.
8C	16F#	16A	.
.	16F#	16A	.
8C	16F#	16A	.
.	16F#	16A	.
8C	16F#	16A	.
.	16F#	16A	.
=45	=45	=45	=45
4BB-	8G	8B-	8d
.	4dd	4gg	8b-
4G	.	.	8g
.	[8b-	[8dd	8dd
=46	=46	=46	=46
4D	8b-]	8dd]	8b-
.	4g	4b-	8gg
4B-	.	.	8dd
.	8d	8g	8ddd
=47	=47	=47	=47
8E-	16G	16b-	2ccc#
.	16G	16b-	.
8E-	16G	16b-	.
.	16G	16b-	.
8E-	16G	16b-	.
.	16G	16b-	.
8E-	16G	16b-	.
.	16G	16b-	.
=48	=48	=48	=48
8E-	16F#	16a	2c#
.	16F#	16a	.
8E-	16F#	16a	.
.	16F#	16a	.
8E-	16G	16g	.
.	16G	16g	.
8E-	16G	16g	.
.	16G	16g	.
=49	=49	=49	=49
8D	16A	16f#	8d
.	16A	16f#	.
8C	16A	16f#	8r
.	16A	16f#	.
8BB-	16d	16b-	8dd
.	16d	16b-	.
8GG	16d	16b-	8dd
.	16d	16b-	.
=50	=50	=50	=50
8FF#	16c	16a	8dd
.	16c	16a	.
8DD	16c	16a	8r
.	16c	16a	.
8GG	16B-	16g	8ddd
.	16B-	16g	.
8BB-	16B-	16g	8ddd
.	16B-	16g	.
=51	=51	=51	=51
8D	16A	16f#	8ddd
.	16A	16f#	.
8C	16A	16f#	8r
.	16A	16f#	.
8BB-	16d	16b-	8dd
.	16d	16b-	.
8GG	16d	16b-	8dd
.	16d	16b-	.
=52	=52	=52	=52
8FF#	16c	16a	8dd
.	16c	16a	.
8DD	16c	16a	8dd
.	16c	16a	.
8GG	16B-	16g	8ddd
.	16B-	16g	.
8BB-	16B-	16g	8ddd
.	16B-	16g	.
=53	=53	=53	=53
8D	8A	8f#	8ddd
8r	8r	8r	8r
8d	8f#	8a	8dd
8d	8f#	8a	8dd
=54	=54	=54	=54
8d	8f#	8a	8dd
4.r	4.r	4.r	8r
.	.	.	8b
.	.	.	8b
=55	=55	=55	=55
2r	2r	8r	[2b
.	.	8G	.
.	.	8g	.
.	.	8g	.
=56	=56	=56	=56
2r	2r	8g	8b]
.	.	8g	16cc
.	.	.	16dd
.	.	8g	8ee
.	.	8g	8ee
=57	=57	=57	=57
2r	2r	8f#	8ee
.	.	8f#	8a
.	.	8f	8dd
.	.	8f	8dd
=58	=58	=58	=58
2r	2r	8e	8dd
.	.	8e	8g
.	.	8e-	8cc
.	.	8e-	8cc
=59	=59	=59	=59
2r	2r	4d	8.cc
.	.	.	16dd
.	.	4e	8.b
.	.	.	16cc
=60	=60	=60	=60
2r	2r	4c	8.a
.	.	.	16b
.	.	4c#	8.g
.	.	.	16a
=61	=61	=61	=61
2r	2r	8d	8f#
.	.	8A	8a
.	.	8A	8a
.	.	8A	8a
=62	=62	=62	=62
2r	8r	8A	8a
.	8F#	8A#	8a#
.	8G	8B	8b
.	8G	8B	8b
=63	=63	=63	=63
8r	8G	[2B	[2b
8FF#	8D#	.	.
8GG	8E	.	.
8GG	8E	.	.
=64	=64	=64	=64
4GG	8E	8B]	8b]
.	8E	8B-	16cc#
.	.	.	16dd
8G	8c#	8b-	8ee
8G	8c#	8b-	8ee
=65	=65	=65	=65
8G	8c#	8b-	8ee
8F#	8d	8a	8a
8F	8B	8a-	8dd
8F	8B	8a-	8dd
=66	=66	=66	=66
8F	8B	8a-	8dd
8E	8c	8g	8g
8E-	8c	8g	8cc
8E-	8c	8g	8cc
=67	=67	=67	=67
4D	4A	4f#	8.cc
.	.	.	16dd
4E	4G	[4g	8.b
.	.	.	16cc
=68	=68	=68	=68
4C	4e	4g]	2a
4D	8d	4f#	.
.	8c	.	.
=69	=69	=69	=69
4GG	4B	4g	8g
.	.	.	8r
4r	4r	4r	16cc#
.	.	.	16dd
.	.	.	16cc#
.	.	.	16dd
=70	=70	=70	=70
8G	8G	8d 8B	16ee
.	.	.	16dd
8r	8G	8d 8B	16cc#
.	.	.	16dd
8GG	8G	8d 8B	16cc
.	.	.	16b
8r	8G	8d 8B	16a
.	.	.	16g
=71	=71	=71	=71
4D	4A	4d 4c	16g
.	.	.	16f#
.	.	.	16e
.	.	.	16d
4r	4r	4r	16cc#
.	.	.	16dd
.	.	.	16cc#
.	.	.	16dd
=72	=72	=72	=72
8D	8d 8c	8f# 8A	16ee
.	.	.	16dd
8r	8d 8c	8f# 8A	16cc
.	.	.	16b
8DD	8d 8c	8f# 8A	16a
.	.	.	16b
8r	8d 8c	8f# 8A	16cc
.	.	.	16dd
=73	=73	=73	=73
4GG	4d 4B	4g 4G	16cc
.	.	.	16b
.	.	.	16a
.	.	.	16g
4r	4r	4r	16cc#
.	.	.	16dd
.	.	.	16cc#
.	.	.	16dd
=74	=74	=74	=74
8G	8G	8d 8B	16ee
.	.	.	16dd
8r	8G	8d 8B	16cc#
.	.	.	16dd
8GG	8G	8d 8B	16cc
.	.	.	16b
8r	8G	8d 8B	16a
.	.	.	16g
=75	=75	=75	=75
4D	4A	4d 4c	16g
.	.	.	16f#
.	.	.	16e
.	.	.	16d
4r	4r	4r	16cc#
.	.	.	16dd
.	.	.	16cc#
.	.	.	16dd
=76	=76	=76	=76
8D	8d 8c	8f# 8A	16ee
.	.	.	16dd
8r	8d 8c	8f# 8A	16cc
.	.	.	16b
8DD	8d 8c	8f# 8A	16a
.	.	.	16b
8r	8d 8c	8f# 8A	16cc
.	.	.	16dd
=77	=77	=77	=77
8GG	4d 4B	4g 4G	16cc
.	.	.	16b
8GG	.	.	16a
.	.	.	16g
[4G	8r	8r	16ff#
.	.	.	16gg
.	8B	8d	16aa
.	.	.	16gg
=78	=78	=78	=78
2G_	8c	8e	16ff#
.	.	.	16ee
.	8d	8f#	16dd#
.	.	.	16ee
.	8e	8g	16dd
.	.	.	16cc
.	8f#	8a	16b
.	.	.	16cc
=79	=79	=79	=79
8G]	4g	4b	16b
.	.	.	16cc
8GG	.	.	16dd
.	.	.	16ee
[4G	8r	8r	16ff#
.	.	.	16gg
.	8B	8d	16aa
.	.	.	16gg
=80	=80	=80	=80
2G_	8c	8e	16ff#
.	.	.	16ee
.	8d	8f#	16dd#
.	.	.	16ee
.	8e	8g	16dd
.	.	.	16cc
.	8f#	8a	16b
.	.	.	16cc
=81	=81	=81	=81
8G]	4g	4b	16b
.	.	.	16cc
8GG	.	.	16dd
.	.	.	16ee
[4G	8r	8r	16ff#
.	.	.	16gg
.	8B	8d	16aa
.	.	.	16gg
=82	=82	=82	=82
2G_	8c	8e	16ff#
.	.	.	16ee
.	8d	8f#	16dd#
.	.	.	16ee
.	8e	8g	16dd
.	.	.	16cc
.	8f#	8a	16b
.	.	.	16cc
=83	=83	=83	=83
8G]	8g	8d	16cc
.	.	.	16b
8r	8r	8r	16ee
.	.	.	16dd
4F#	[4d	4a	16cc#
.	.	.	16dd
.	.	.	16ee
.	.	.	16dd
=84	=84	=84	=84
8G	8d]	8g	16cc
.	.	.	16b
8r	8r	8r	16ee
.	.	.	16dd
4F#	[4d	4a	16cc#
.	.	.	16dd
.	.	.	16ee
.	.	.	16dd
=85	=85	=85	=85
8G	8d]	8g	16cc
.	.	.	16b
8r	8r	8r	16ee
.	.	.	16dd
4F#	[4d	4a	16cc#
.	.	.	16dd
.	.	.	16ee
.	.	.	16dd
=86	=86	=86	=86
8G	8d]	8g	16cc
.	.	.	16b
8r	8r	8r	16ee
.	.	.	16dd
4F#	[4d	4a	16cc#
.	.	.	16dd
.	.	.	16ee
.	.	.	16dd
=87	=87	=87	=87
8G	8d]	8g	8cc
4.r	4.r	4.r	8b
.	.	.	8ee
.	.	.	8dd
=88	=88	=88	=88
2r	2r	2r	2dd
=89	=89	=89	=89
8r	8r	2e-	2ee-
8G	8B-	.	.
8G	8B-	.	.
8G	8B-	.	.
=90	=90	=90	=90
8r	8r	2B-	2b-
8D	8F	.	.
8D	8F	.	.
8D	8F	.	.
=91	=91	=91	=91
8r	8r	4G	4g
8E-	8B-	.	.
8E-	8B-	8r	8r
8E-	8B-	8G	8g
=92	=92	=92	=92
8r	8r	8B-	8b-
8A-	8B-	8d	8dd
8A-	8B-	8f	8ff
8A-	8B-	8d	8dd
=93	=93	=93	=93
8r	8r	2e-	2ee-
8G	8B-	.	.
8G	8B-	.	.
8G	8B-	.	.
=94	=94	=94	=94
8r	8r	2B-	2b-
8D	8F	.	.
8D	8F	.	.
8D	8F	.	.
=95	=95	=95	=95
8r	8r	4G	4g
8E-	8B-	.	.
8E-	8B-	8r	8r
8E-	8B-	8G	8g
=96	=96	=96	=96
8r	8r	8B-	8b-
8A-	8B-	8d	8dd
8A-	8B-	8f	8ff
8A-	8B-	8d	8dd
=97	=97	=97	=97
8r	8r	2e-	2ee-
8G	8B-	.	.
8G	8B-	.	.
8G	8B-	.	.
=98	=98	=98	=98
8F#	8A	2d	2dd
8F#	8A	.	.
8F	8A-	.	.
8F	8A-	.	.
=99	=99	=99	=99
2E	8G	8d	8dd
.	8F#	8c	8cc
.	8G	[4c	[4cc
.	8A	.	.
=100	=100	=100	=100
2E-	8B-	4c]	4cc]
.	8F#	.	.
.	8G	4c#	4cc#
.	8A	.	.
=101	=101	=101	=101
8D	2B	2d	2dd
8D	.	.	.
8D	.	.	.
8D	.	.	.
=102	=102	=102	=102
8D	2A	2c	2f#
8D	.	.	.
8D	.	.	.
8D	.	.	.
=103	=103	=103	=103
4GG	4G	4B	16g
.	.	.	16f#
.	.	.	16e
.	.	.	16d
4r	4r	4r	16e
.	.	.	16f#
.	.	.	16g
.	.	.	16a
=104	=104	=104	=104
4G	4d	4g	16b
.	.	.	16a
.	.	.	16g
.	.	.	16f#
4r	4r	4r	16g
.	.	.	16a
.	.	.	16b
.	.	.	16cc
=105	=105	=105	=105
4GG	4g	4b	16ee
.	.	.	16dd
.	.	.	16cc
.	.	.	16b
4r	4r	4r	16cc
.	.	.	16dd
.	.	.	16ee
.	.	.	16ff#
=106	=106	=106	=106
4G	4b	4dd	16gg
.	.	.	16ff#
.	.	.	16ee
.	.	.	16dd
4r	4r	4r	16ee
.	.	.	16ff#
.	.	.	16gg
.	.	.	16aa
=107	=107	=107	=107
4GG	4dd	4gg	16bb
.	.	.	16aa
.	.	.	16gg
.	.	.	16ff#
4r	4r	4r	16gg
.	.	.	16aa
.	.	.	16bb
.	.	.	16ccc
=108	=108	=108	=108
2r	4r	8r	[2ddd
.	.	8b	.
.	8b	8bb	.
.	8b	8aa	.
=109	=109	=109	=109
2r	8b	4gg#	4ddd]
.	8e	.	.
.	8a	4gg	4ccc#
.	8a	.	.
=110	=110	=110	=110
4r	8a	4ff#	4ccc
.	8d	.	.
8G	8d	8ff	8bb
8G	8g	8ff	8bb
=111	=111	=111	=111
8G	8r	8ff	8bb
8C	8g	8ee	8ccc
8F#	8c#	8ee	8aa#
8F#	8f#	8ee	8aa#
=112	=112	=112	=112
8F#	8r	8ee	8aa#
8BB	8f#	8dd#	8bb
8E	8B	8dd	8gg#
8E	8e	8dd	8gg#
=113	=113	=113	=113
8E	8r	8dd	8gg#
8AA	8e	8cc#	8aa
8D	8A	8cc	8ff#
8D	8d	8cc	8ff#
=114	=114	=114	=114
8D	8r	8cc	8ff#
8GG	8d	8b	8gg
8E	8G	8b-	8cc#
8E	8g	8b-	8cc#
=115	=115	=115	=115
8D	4.g	4.b	4.dd
8D	.	.	.
8D	.	.	.
8D	8b	8dd	8gg
=116	=116	=116	=116
8D	4.d	4.g	4.b
8D	.	.	.
8D	.	.	.
8D	8c	16a	16cc
.	.	16f#	16a
=117	=117	=117	=117
4GG	4B	4g	4g
4r	4r	4r	4r
=118	=118	=118	=118
2c	4d	4f#	16g#
.	.	.	16a
.	.	.	16b
.	.	.	16cc
.	4f#	4a	16cc#
.	.	.	16dd
.	.	.	16ee
.	.	.	16dd
=119	=119	=119	=119
4B	4g	4b	4dd
8E	8B	8g	8gg
8r	8r	8r	8r
=120	=120	=120	=120
4C	4e	4g	4a
8D	8A	8f#	8dd
8r	8r	8r	8r
=121	=121	=121	=121
[4E	4f#	4a	4cc
8E]	8g	8g	8b
8r	8r	8r	8r
=122	=122	=122	=122
2C	4c	4e	16g#
.	.	.	16a
.	.	.	16b
.	.	.	16cc
.	4A	4f#	16cc#
.	.	.	16dd
.	.	.	16ee
.	.	.	16dd
=123	=123	=123	=123
4BB	4G	4g	4dd
8C#	8B-	8e	8gg
8r	8r	8r	8r
=124	=124	=124	=124
2D	4B	4d	4g
.	4c	4f#	4a
=125	=125	=125	=125
8G	8B	8g	8g
4.r	8r	8r	8r
.	8e	8g	8b
.	8e	8r	8r
=126	=126	=126	=126
2r	8e	8a	8cc
.	8A	8r	8r
.	8d	8f#	8a
.	8d	8r	8r
=127	=127	=127	=127
4r	8d	8g	8b
.	8G	8r	8r
8E	8e	8b	8gg
8E	8r	8r	8r
=128	=128	=128	=128
8E	8e	8cc	8aa
8AA	8r	8r	8r
8D	8d	8a	8ff#
8D	8r	8r	8r
=129	=129	=129	=129
8D	8d	8b	8gg
8GG	8r	8r	8r
8C#	8a	8gg	8eee
8r	8r	8r	8eee
=130	=130	=130	=130
8D	8a	8gg	8eee
8r	8r	8r	8aa
8DD	8cc	8ff#	8ddd
8r	8r	8r	8ddd
=131	=131	=131	=131
8GG	8b	8gg	8ddd
4.r	8r	8r	8gg
.	8g	8g	8gg
.	8f#	8a	8gg
=132	=132	=132	=132
8d	8f	8b	8gg
8c	8e	8cc	8gg
8B	8d	8dd	8gg
8A	8c	8ee	8gg
=133	=133	=133	=133
4G	4B	4ff	8aa
.	.	.	8gg
4r	8g	8g	8gg
.	8f#	8a	8gg
=134	=134	=134	=134
8d	8f	8b	8gg
8c	8e	8cc	8gg
8B	8d	8dd	8gg
8A	8c	8ee	8gg
=135	=135	=135	=135
4G	4B	4ff	8aa
.	.	.	8gg
4r	4r	4r	4r
=136	=136	=136	=136
2r	2r	2r	4r
.	.	.	8gg
.	.	.	8gg
=137	=137	=137	=137
4c	8e-	8g	4.gg
.	8c	8e-	.
4r	8e-	8g	.
.	8r	8r	8ccc
=138	=138	=138	=138
4G	8d	8f	4.bb
.	8B	8d	.
4r	8d	8f	.
.	8r	8r	8ff
=139	=139	=139	=139
8C	2r	8r	8ee-
8E-	.	4g	8cc
8F	.	.	8a-
8D	.	8f	8dd
=140	=140	=140	=140
4G	8r	8e-	8cc
.	8g	8d	8b
4r	8f#	4r	8g
.	8f	.	8g
=141	=141	=141	=141
2r	8e-	[2g	8cc
.	8d	.	8b
.	8e-	.	8cc
.	8c	.	8ee-
=142	=142	=142	=142
2r	8B	4.g]	8dd
.	8A	.	8cc#
.	8B	.	8dd
.	8G	8B	8ff
=143	=143	=143	=143
8r	2c	8c	8ee-
8B-	.	8e	8gg
8A-	.	8f	8ff
8F	.	8cc	8aa-
=144	=144	=144	=144
4G	4g	8cc	8ee-
.	.	8b	8dd
4r	4r	4r	8gg
.	.	.	8gg
=145	=145	=145	=145
8C	16c	16e-	4.gg
.	16G	16c	.
8C	16c	16e-	.
.	16G	16c	.
8C	8c	8e-	.
8r	8r	8r	8ccc
=146	=146	=146	=146
8G	16d	16f	4.bb
.	16B	16d	.
8G	16d	16f	.
.	16B	16d	.
8G	8d	8f	.
8r	8r	8r	8ff
=147	=147	=147	=147
8c	2r	8r	8ee-
8E-	.	8g	8cc
8F	.	8c	8a
8F#	.	8a	8dd
=148	=148	=148	=148
8G	2r	8d	8b
8GG	.	8g	8ee-
8AA-	.	8e-	8cc
8AA	.	8cc	8ff
=149	=149	=149	=149
8BB-	4.r	8f	8dd
8BB	.	8dd	8gg
8C	.	8g	8ee-
8CC	8e-	8ee-	8aa-
=150	=150	=150	=150
4DD	8a-	8b-	8ff
.	8f	8aa-	8bb-
4r	4r	4r	4r
=151	=151	=151	=151
2r	2r	2r	4r
.	.	.	8b-
.	.	.	8b-
=152	=152	=152	=152
4E-	8e-	8g	4.b-
.	8B-	8e-	.
4r	8e-	8g	.
.	8r	8r	8ee-
=153	=153	=153	=153
4BB-	8f	8a-	4.dd
.	8d	8f	.
4r	8f	8a-	.
.	8r	8r	8a-
=154	=154	=154	=154
4r	2r	8e-	8g
.	.	8g	8b-
8d-	.	4r	4r
8d-	.	.	.
=155	=155	=155	=155
8d-	2r	4r	2r
8G	.	.	.
8B-	.	8dd-	.
8B-	.	8dd-	.
=156	=156	=156	=156
8B-	2r	8dd-	2r
8E	.	8g	.
4r	.	8b-	.
.	.	8b-	.
=157	=157	=157	=157
2r	2r	8b-	4r
.	.	8e	.
.	.	4r	8cc
.	.	.	8cc
=158	=158	=158	=158
4F	8f	8a-	4.cc
.	8c	8f	.
4r	8f	8a-	.
.	8r	8r	8ff
=159	=159	=159	=159
4C	8g	8b-	4.ee
.	8e	8g	.
4r	8g	8b-	.
.	8r	8r	8b-
=160	=160	=160	=160
4r	2r	8f	8a
.	.	8a	8cc
8e-	.	4r	4r
8e-	.	.	.
=161	=161	=161	=161
8e-	2r	4r	2r
8A	.	.	.
8c	.	8ee-	.
8c	.	8ee-	.
=162	=162	=162	=162
8c	2r	8ee-	4r
8F#	.	8a	.
4r	.	8ccc	8eee-
.	.	8ccc	8eee-
=163	=163	=163	=163
4r	4r	8ccc	8eee-
.	.	8ff#	8aa
8d#	8f#	8aa	8ccc
8d#	8f#	8aa	8ccc
=164	=164	=164	=164
8d#	8f#	8aa	8ccc
8a	8cc	8dd#	8ff#
8B	8d#	8ff#	8aa
8B	8d#	8ff#	8aa
=165	=165	=165	=165
8B	8d#	8ff#	8aa
8f#	8a	8b	8dd#
4r	4r	8b	8bb
.	.	8b	8bb
=166	=166	=166	=166
4r	2r	8b	8bb
.	.	8e	8ee
8E	.	4b 4e	4gg
8E	.	.	.
=167	=167	=167	=167
8E	4r	4cc# 4e	4ff#
8AA#	.	.	.
4r	8f#	4ee 4cc#	4aa#
.	8f#	.	.
=168	=168	=168	=168
4r	8f#	4dd 4f#	4bb
.	8B	.	.
8BB	8B	4ff# 4b	4ddd
8BB	8B	.	.
=169	=169	=169	=169
8BB	8B	4gg# 4b	4ccc#
8EE#	8E#	.	.
4r	4r	8cc#	8ccc#
.	.	8cc#	8ccc#
=170	=170	=170	=170
4r	2r	8cc#	8ccc#
.	.	8f#	8ff#
8F#	.	4cc# 4f#	4aa
8F#	.	.	.
=171	=171	=171	=171
8F#	4r	4dd# 4f#	4gg#
8BB#	.	.	.
4r	8g#	4ff# 4dd#	4bb#
.	8g#	.	.
=172	=172	=172	=172
4r	8g#	4ee 4cc#	4ccc#
.	8c#	.	.
8C#	8c#	4gg# 4cc#	4eee
8C#	8c#	.	.
=173	=173	=173	=173
8C#	8c#	4aa# 4cc#	4ddd#
8FF##	8F##	.	.
4r	4r	8dd#	8ddd#
.	.	8dd#	8ddd#
=174	=174	=174	=174
4r	4r	8dd#	8ddd#
.	.	8g#	8gg#
8G#	8g#	8b	8bb
8G#	8g#	8b	8bb
=175	=175	=175	=175
8G#	8g#	8b	8bb
8C#	8c#	8e	8ee
8E	8e	8g#	8gg#
8E	8e	8g#	8gg#
=176	=176	=176	=176
8E	8e	8g#	8gg#
8AA	8A	8c#	8cc#
8C#	8c#	8e	8ee
8C#	8c#	8e	8ee
=177	=177	=177	=177
8C#	8c#	8e	8ee
8FF#	8F#	8A	8a
8A	8a	8cc#	8ccc#
8A	8a	8cc#	8ccc#
=178	=178	=178	=178
8A	8a	8cc#	8ccc#
8D#	8d#	8f#	8ff#
8F#	8f#	8a	8aa
8F#	8f#	8a	8aa
=179	=179	=179	=179
8F#	8f#	8a	8aa
8E	8e	8g#	8gg#
8D#	8d#	8f#	8ff#
8C#	8c#	8e	8ee
=180	=180	=180	=180
4BB	4B	4b 4f# 4B	4bb 4dd#
4r	4r	4r	4r
=181	=181	=181	=181
2r	2r	2r	4r
.	.	.	8b
.	.	.	8b
=182	=182	=182	=182
4E	8e	8g#	4.b
.	8B	8e	.
4r	8e	8g#	.
.	8r	8r	8ee
=183	=183	=183	=183
4BB	8f#	8a	4.dd#
.	8d#	8f#	.
4r	8f#	8a	.
.	8r	8r	8a
=184	=184	=184	=184
4E	4B	8e	8g#
.	.	8g#	8b
4r	4r	4r	4r
=185	=185	=185	=185
2r	2r	2r	4r
.	.	.	8b
.	.	.	8b
=186	=186	=186	=186
4E	8e	8g	4.b
.	8B	8e	.
4r	8e	8g	.
.	8r	8r	8ee
=187	=187	=187	=187
4BB	8f#	8a	4.dd#
.	8d#	8f#	.
4r	8f#	8a	.
.	8r	8r	8a
=188	=188	=188	=188
4E	4B	8e	8g
.	.	8g	8b
4r	4r	4r	4r
=189	=189	=189	=189
2r	2r	2r	4r
.	.	.	8b
.	.	.	8b
=190	=190	=190	=190
4E	16e	16g	4.b
.	16B	16e	.
.	16e	16g	.
.	16B	16e	.
4r	8e	8g	.
.	8r	8r	8ee
=191	=191	=191	=191
4E	16g	16b	4.ee
.	16e	16g	.
.	16g	16b	.
.	16e	16g	.
4r	8g	8b	.
.	8r	8r	8gg
=192	=192	=192	=192
4D	4G	4B	8gg
.	.	.	8ff
4r	8g	8g	4r
.	8f#	8a	.
=193	=193	=193	=193
8d	8f	8b	2r
8c	8e	8cc	.
8B	8d	8dd	.
8A	8c	8ee	.
=194	=194	=194	=194
4G	4B	8gg	4r
.	.	8ff	.
4r	8g	8g	8b
.	8f#	8a	8cc
=195	=195	=195	=195
8d	8f	8b	8dd
8c	8e	8cc	8ee
8B	8d	8dd	8ff
8A	8c	8ee	8gg
=196	=196	=196	=196
4G	4B	4ff	8aa
.	.	.	8gg
4r	4r	4r	8gg
.	.	.	8gg
=197	=197	=197	=197
8GG	8d 8B	8ff	8aa
8r	8r	8r	8gg
8GG	8d 8B	8ff	8aa
8r	8r	8r	8gg
=198	=198	=198	=198
8GG	8d 8B	8ff	8aa
4.r	4.r	4.r	8gg
.	.	.	4r
=199	=199	=199	=199
2r	2r	2r	4r
.	.	.	8gg
.	.	.	8gg
=200	=200	=200	=200
4c	8e	8g	4.gg
.	8c	8e	.
4r	8e	8g	.
.	8r	8r	8ccc
=201	=201	=201	=201
4G	8d	8f	4.bb
.	8B	8d	.
4r	8d	8f	.
.	8r	8r	8ff
=202	=202	=202	=202
8C	2r	8r	8ee
8E	.	8g	8cc
8F	.	8c	8a
8F#	.	8a	8dd
=203	=203	=203	=203
4G	8r	8e	8cc
.	8g	8d	8b
4r	8f#	4r	8g
.	8f	.	8g
=204	=204	=204	=204
2r	8e	8g	8cc
.	8e	8g	8cc
.	8e	8g	8cc#
.	8e	8g	8cc#
=205	=205	=205	=205
2r	8B	8g	8dd
.	8B	8g	8dd
.	8B	8g	8dd#
.	8B	8g	8dd#
=206	=206	=206	=206
8r	8c	8g	8ee
8B-	8e	4cc	8gg
8A	8f	.	8ff
8F	8c	8cc	8aa
=207	=207	=207	=207
4G	4g	8cc	8ee
.	.	8b	8dd
4r	4r	4r	8gg
.	.	.	8gg
=208	=208	=208	=208
8C	16c	16e	4.gg
.	16G	16c	.
8C	16c	16e	.
.	16G	16c	.
8C	8c	8e	.
8r	8r	8r	8ccc
=209	=209	=209	=209
8G	16d	16f	4.bb
.	16B	16d	.
8G	16d	16f	.
.	16B	16d	.
8G	8d	8f	.
8r	8r	8r	8ff
=210	=210	=210	=210
8c	2r	8r	8ee
8E	.	8g	8cc
8F	.	8c	8a
8F#	.	8a	8dd
=211	=211	=211	=211
8G	4r	8e	8cc
8F	.	8d	8b
8E	8G	8c	8cc
8E	8G	8c	8cc
=212	=212	=212	=212
8F	8A	8c	8dd
8F	8A	8c	8dd
8G	8B-	8c	8ee
8G	8B-	8c	8ee
=213	=213	=213	=213
8A	8c	8cc	8ff
8A	8c	8cc	8ff
8A-	8d	8cc	8ff#
8A-	8d	8cc	8ff#
=214	=214	=214	=214
8G	8e	4cc	8gg
8G	8c	.	8ee
8G	8g	8dd	8ff
8G	8g	16cc	16ee
.	.	16b	16dd
=215	=215	=215	=215
8C	8e	8cc	8cc
8r	8r	8r	8r
8C	8c	8c	8c
8C	8c	8c	8c
=216	=216	=216	=216
8BB	8B	8B	8B
4.r	4.r	4.r	8r
.	.	.	8ff
.	.	.	8ff
=217	=217	=217	=217
8GG	4r	4r	8ff
8G	.	.	16gg
.	.	.	16aa
8G	8d	8f	16gg
.	.	.	16ff
8G	8d	8f	16ee
.	.	.	16dd
=218	=218	=218	=218
8G	4.d	8f	8cc
8G	.	16g	4b
.	.	16a	.
8G	.	16g	.
.	.	16f	.
8G	8e	16e	8cc
.	.	16d	.
=219	=219	=219	=219
8G	8f	8c	8cc#
8r	8r	8B	8dd
8C	8c	8c	8c
8C	8c	8c	8c
=220	=220	=220	=220
8BB	8B	8B	8B
4.r	4.r	4.r	8r
.	.	.	8ff
.	.	.	8ff
=221	=221	=221	=221
8GG	4r	4r	8ff
8G	.	.	16gg
.	.	.	16aa
8G	8d	8f	16gg
.	.	.	16ff
8G	8d	8f	16ee
.	.	.	16dd
=222	=222	=222	=222
8G	4.d	8f	8cc
8G	.	16g	4b
.	.	16a	.
8G	.	16g	.
.	.	16f	.
8G	8e	16e	8cc
.	.	16d	.
=223	=223	=223	=223
8G	8f#	8c	8ee
4.r	8g	8B	8dd
.	4r	4r	8gg
.	.	.	8gg
=224	=224	=224	=224
4c	8e	8g	4.gg
.	8c	8e	.
4r	8e	8g	.
.	8r	8r	8ccc
=225	=225	=225	=225
4G	8d	8f	4.bb
.	8B	8d	.
4r	8d	8f	.
.	8r	8r	8ff
=226	=226	=226	=226
8C	2r	8r	8ee
8E	.	8g	8cc
8F	.	8c	8a
8F#	.	8a	8dd
=227	=227	=227	=227
8G	4.r	8d	8b
8G#	.	8b	8ee
8A	.	8e	8cc
8AA	8c	8cc	8ff
=228	=228	=228	=228
4BB	8f	8g	8dd
.	8d	8ff	8gg
4r	4r	4r	4r
=229	=229	=229	=229
2r	2r	2r	4r
.	.	.	8gg
.	.	.	8gg
=230	=230	=230	=230
8c	8e	8cc	4.gg
8c	8e	8cc	.
8c	8e	8cc	.
8r	8r	8r	8gg#
=231	=231	=231	=231
8F	8d	8cc	4.aa
8F	8d	8cc	.
8F	8d	8cc	.
8r	8r	8r	16ff
.	.	.	16dd
=232	=232	=232	=232
8G	4.g	16e	4.cc
.	.	16g	.
8G	.	16e	.
.	.	16g	.
8G	.	16e	.
.	.	16g	.
8G	8B	16f	8dd
.	.	16g	.
=233	=233	=233	=233
8C	8c	8e	8cc
8r	8r	8r	8r
8C	8c	8c	8c
8C	8c	8c	8c
=234	=234	=234	=234
8GG	8G	8G	8G
8r	8r	8r	8r
8E	8e	8e	8e
8E	8e	8e	8e
=235	=235	=235	=235
8C	8c	8c	8c
8G	8g	8g	8g
8E	8e	8e	8e
8c	8cc	8cc	8cc
=236	=236	=236	=236
8G	8g	8g	8g
8e	8e	8ee	8ee
4r	8c	8cc	8cc
.	8g	8gg	8gg
=237	=237	=237	=237
2r	8e	8ee	8ee
.	8cc	8cc	8ccc
.	4r	8g	8gg
.	.	8ee	8eee
=238	=238	=238	=238
8BB	16G	16d	2fff
.	16G	16d	.
8G	16G	16d	.
.	16G	16d	.
8D	16G	16d	.
.	16G	16d	.
8B	16G	16d	.
.	16G	16d	.
=239	=239	=239	=239
8G	16B	16d	2f
.	16B	16d	.
8d	16B	16d	.
.	16B	16d	.
8B	16d	16g	.
.	16d	16g	.
8g	16d	16g	.
.	16d	16g	.
=240	=240	=240	=240
2c	16c	16g	8e
.	16c	16g	.
.	16c	16g	8cc
.	16c	16g	.
.	16c	16e	8g
.	16c	16e	.
.	16c	16e	8ee
.	16c	16e	.
=241	=241	=241	=241
2C	16e	16g	8cc
.	16e	16g	.
.	16e	16g	8gg
.	16e	16g	.
.	16g	16cc	8ee
.	16g	16cc	.
.	16g	16cc	8eee
.	16g	16cc	.
=242	=242	=242	=242
8GG#	16E	16B	2ddd
.	16E	16B	.
8E	16E	16B	.
.	16E	16B	.
8BB	16E	16B	.
.	16E	16B	.
8G#	16E	16B	.
.	16E	16B	.
=243	=243	=243	=243
8E	16G#	16B	2d
.	16G#	16B	.
8B	16G#	16B	.
.	16G#	16B	.
8G#	16B	16e	.
.	16B	16e	.
8e	16B	16e	.
.	16B	16e	.
=244	=244	=244	=244
2A	16A	16e	8c
.	16A	16e	.
.	16A	16e	8a
.	16A	16e	.
.	16A	16c	8e
.	16A	16c	.
.	16A	16c	8cc
.	16A	16c	.
=245	=245	=245	=245
2AA	16c	16e	8a
.	16c	16e	.
.	16c	16e	8ee
.	16c	16e	.
.	16e	16a	8cc
.	16e	16a	.
.	16e	16a	8ccc
.	16e	16a	.
=246	=246	=246	=246
8EE	16C	16G	2bb-
.	16C	16G	.
8C	16C	16G	.
.	16C	16G	.
8GG	16C	16G	.
.	16C	16G	.
8E	16C	16G	.
.	16C	16G	.
=247	=247	=247	=247
8C	16E	16G	2B-
.	16E	16G	.
8G	16E	16G	.
.	16E	16G	.
8E	16G	16c	.
.	16G	16c	.
8c	16G	16c	.
.	16G	16c	.
=248	=248	=248	=248
2F	16F	16c	8A
.	16F	16c	.
.	16F	16c	8f
.	16F	16c	.
.	16F	16A	8c
.	16F	16A	.
.	16F	16A	8a
.	16F	16A	.
=249	=249	=249	=249
2FF	16A	16c	8f
.	16A	16c	.
.	16A	16c	8cc
.	16A	16c	.
.	16c	16f	8a
.	16c	16f	.
.	16c	16f	8aa
.	16c	16f	.
=250	=250	=250	=250
8FF#	16D	16A	2ccc
.	16D	16A	.
8D	16D	16A	.
.	16D	16A	.
8AA	16D	16A	.
.	16D	16A	.
8F#	16D	16A	.
.	16D	16A	.
=251	=251	=251	=251
8D	16F#	16A	2c
.	16F#	16A	.
8A	16F#	16A	.
.	16F#	16A	.
8F#	16A	16d	.
.	16A	16d	.
8d	16A	16d	.
.	16A	16d	.
=252	=252	=252	=252
8G	16G	16d	8B
.	16G	16d	.
8F	16G	16d	8r
.	16G	16d	.
8E-	16G	16e-	8g
.	16G	16e-	.
8C	16G	16e-	8g
.	16G	16e-	.
=253	=253	=253	=253
8BB	16F	16d	8g
.	16F	16d	.
8GG	16F	16d	8r
.	16F	16d	.
8C	16E-	16c	8gg
.	16E-	16c	.
8CC	16E-	16c	8gg
.	16E-	16c	.
=254	=254	=254	=254
8GG	16D	16B	8gg
.	16D	16B	.
8F	16D	16B	8r
.	16D	16B	.
8E-	16G	16e-	8g
.	16G	16e-	.
8C	16G	16e-	8g
.	16G	16e-	.
=255	=255	=255	=255
8BB	16F	16d	8g
.	16F	16d	.
8GG	16F	16d	8g
.	16F	16d	.
8C	16E-	16c	8gg
.	16E-	16c	.
8CC	16E-	16c	8gg
.	16E-	16c	.
=256	=256	=256	=256
8GG	8D	8B	8gg
8r	8r	8r	8r
8G	8B	8d	8g
8G	8B	8d	8g
=257	=257	=257	=257
8G	8B	8d	8g
4.r	4.r	4.r	8r
.	.	.	8ee
.	.	.	8ee
=258	=258	=258	=258
2r	2r	8r	[2ee
.	.	8c	.
.	.	8cc	.
.	.	8cc	.
=259	=259	=259	=259
2r	4r	8cc	8ee]
.	.	8cc	16ff
.	.	.	16gg
.	8f#	8cc	8aa
.	8r	8cc	8aa
=260	=260	=260	=260
2r	8g	8b	8aa
.	8r	8b	8dd
.	8e	8b-	8gg
.	8r	8b-	8gg
=261	=261	=261	=261
2r	8f	8a	8gg
.	8r	8a	8cc
.	8d	8a-	8ff
.	8r	8a-	8ff
=262	=262	=262	=262
2r	4B	2g	8.ff
.	.	.	16gg
.	4c	.	8.ee
.	.	.	16ff
=263	=263	=263	=263
2r	4f	2a	8.dd
.	.	.	16ee
.	4f#	.	8.cc
.	.	.	16dd
=264	=264	=264	=264
2r	4g	8g	8b
.	.	8d	8dd
.	4r	8d	8dd
.	.	8d	8dd
=265	=265	=265	=265
2r	8r	8d	8dd
.	8B	8d#	8dd#
.	8c	8e	8ee
.	8c	8e	8ee
=266	=266	=266	=266
8r	8c	[2e	[2ee
8BB	8G#	.	.
8C	8A	.	.
8C	8A	.	.
=267	=267	=267	=267
4C	8A	8e]	8ee]
.	8A	8e-	16ff#
.	.	.	16gg
8c	8f#	8ee-	8aa
8c	8f#	8ee-	8aa
=268	=268	=268	=268
8c	8f#	8ee-	8aa
8B	8g	8dd	8dd
8B-	8e	8dd-	8gg
8B-	8e	8dd-	8gg
=269	=269	=269	=269
8B-	8e	8dd-	8gg
8A	8f	8cc	8cc
8A-	8c	8cc	8ff
8A-	8c	8cc	8ff
=270	=270	=270	=270
4G	4d	4b	8.ff
.	.	.	16gg
4A	4c	[4cc	8.ee
.	.	.	16ff
=271	=271	=271	=271
4F	4a	4cc]	2dd
4G	8g	4b	.
.	8f	.	.
=272	=272	=272	=272
4C	4e	4cc	8cc
.	.	.	8r
4r	4r	4r	16ff#
.	.	.	16gg
.	.	.	16ff#
.	.	.	16gg
=273	=273	=273	=273
8c	8e 8c	8g	16aa
.	.	.	16gg
8r	8e 8c	8g	16ff#
.	.	.	16gg
8C	8e 8c	8g	16ff
.	.	.	16ee
8r	8e 8c	8g	16dd
.	.	.	16cc
=274	=274	=274	=274
4G	4f 4d	4g	16cc
.	.	.	16b
.	.	.	16a
.	.	.	16g
4r	4r	4r	16ff#
.	.	.	16gg
.	.	.	16ff#
.	.	.	16gg
=275	=275	=275	=275
8G	8f 8d	8b 8g	16aa
.	.	.	16gg
8r	8f 8d	8b 8g	16ff
.	.	.	16ee
8GG	8f 8d	8b 8g	16dd
.	.	.	16ee
8r	8f 8d	8b 8g	16ff
.	.	.	16gg
=276	=276	=276	=276
4C	4e 4c	4cc 4g	16ff
.	.	.	16ee
.	.	.	16dd
.	.	.	16cc
4r	4r	4r	16ff#
.	.	.	16gg
.	.	.	16ff#
.	.	.	16gg
=277	=277	=277	=277
8c	8e 8c	8g	16aa
.	.	.	16gg
8r	8e 8c	8g	16ff#
.	.	.	16gg
8C	8e 8c	8g	16ff
.	.	.	16ee
8r	8e 8c	8g	16dd
.	.	.	16cc
=278	=278	=278	=278
4G	4f 4d	4g	16cc
.	.	.	16b
.	.	.	16a
.	.	.	16g
4r	4r	4r	16ff#
.	.	.	16gg
.	.	.	16ff#
.	.	.	16gg
=279	=279	=279	=279
8G	8f 8d	8b 8g	16aa
.	.	.	16gg
8r	8f 8d	8b 8g	16ff
.	.	.	16ee
8GG	8f 8d	8b 8g	16dd
.	.	.	16ee
8r	8f 8d	8b 8g	16ff
.	.	.	16gg
=280	=280	=280	=280
8C	4e 4c	4cc 4g	16ff
.	.	.	16ee
8C	.	.	16dd
.	.	.	16cc
[4c	8r	8r	16bb
.	.	.	16ccc
.	8e	8g	16ddd
.	.	.	16ccc
=281	=281	=281	=281
2c_	8f	8a	16bb
.	.	.	16aa
.	8g	8b	16gg#
.	.	.	16aa
.	8a	8cc	16gg
.	.	.	16ff
.	8b	8dd	16ee
.	.	.	16ff
=282	=282	=282	=282
8c]	4cc	4ee	16ee
.	.	.	16ff
8C	.	.	16gg
.	.	.	16aa
[4c	8r	8r	16bb
.	.	.	16ccc
.	8e	8g	16ddd
.	.	.	16ccc
=283	=283	=283	=283
2c_	8f	8a	16bb
.	.	.	16aa
.	8g	8b	16gg#
.	.	.	16aa
.	8a	8cc	16gg
.	.	.	16ff
.	8b	8dd	16ee
.	.	.	16ff
=284	=284	=284	=284
8c]	4cc	4ee	16ee
.	.	.	16ff
8C	.	.	16gg
.	.	.	16aa
[4c	8r	8r	16bb
.	.	.	16ccc
.	8e	8g	16ddd
.	.	.	16ccc
=285	=285	=285	=285
2c_	8f	8a	16bb
.	.	.	16aa
.	8g	8b	16gg#
.	.	.	16aa
.	8a	8cc	16gg
.	.	.	16ff
.	8b	8dd	16ee
.	.	.	16ff
=286	=286	=286	=286
8c]	8cc	8g	16ff
.	.	.	16ee
8r	8r	8r	16aa
.	.	.	16gg
4B	[4g	4dd	16ff#
.	.	.	16gg
.	.	.	16aa
.	.	.	16gg
=287	=287	=287	=287
8c	8g]	8cc	16ff
.	.	.	16ee
8r	8r	8r	16aa
.	.	.	16gg
4B	[4g	4dd	16ff#
.	.	.	16gg
.	.	.	16aa
.	.	.	16gg
=288	=288	=288	=288
8c	8g]	8cc	16ff
.	.	.	16ee
8r	8r	8r	16aa
.	.	.	16gg
4B	[4g	4dd	16ff#
.	.	.	16gg
.	.	.	16aa
.	.	.	16gg
=289	=289	=289	=289
8c	8g]	8cc	16ff
.	.	.	16ee
8r	8r	8r	16aa
.	.	.	16gg
4B	[4g	4dd	16ff#
.	.	.	16gg
.	.	.	16aa
.	.	.	16gg
=290	=290	=290	=290
8c	8g]	8cc	8ff
4.r	4.r	4.r	8ee
.	.	.	8aa
.	.	.	8gg
=291	=291	=291	=291
2r	2r	2r	2gg
=292	=292	=292	=292
8r	8r	2a-	2aa-
8c	8e-	.	.
8c	8e-	.	.
8c	8e-	.	.
=293	=293	=293	=293
8r	8r	2e-	2ee-
8G	8B-	.	.
8G	8B-	.	.
8G	8B-	.	.
=294	=294	=294	=294
8r	8r	4c	4cc
8A-	8e-	.	.
8A-	8e-	8r	8r
8A-	8e-	8c	8cc
=295	=295	=295	=295
8r	8r	8e-	8ee-
8d-	8e-	8g	8gg
8d-	8e-	8b-	8bb-
8d-	8e-	8g	8gg
=296	=296	=296	=296
8r	8r	2a-	2aa-
8c	8e-	.	.
8c	8e-	.	.
8c	8e-	.	.
=297	=297	=297	=297
8r	8r	2e-	2ee-
8G	8B-	.	.
8G	8B-	.	.
8G	8B-	.	.
=298	=298	=298	=298
8r	8r	4c	4cc
8A-	8e-	.	.
8A-	8e-	8r	8r
8A-	8e-	8c	8cc
=299	=299	=299	=299
8r	8r	8e-	8ee-
8d-	8e-	8g	8gg
8d-	8e-	8b-	8bb-
8d-	8e-	8g	8gg
=300	=300	=300	=300
8r	8r	2a-	2aa-
8c	8e-	.	.
8c	8e-	.	.
8c	8e-	.	.
=301	=301	=301	=301
8B	8d	2g	2gg
8B	8d	.	.
8B-	8d-	.	.
8B-	8d-	.	.
=302	=302	=302	=302
2A	8c	8g	8gg
.	8B	8f	8ff
.	8c	[4f	[4ff
.	8d	.	.
=303	=303	=303	=303
2A-	8e-	4f]	4ff]
.	8B	.	.
.	8c	4f#	4ff#
.	8d	.	.
=304	=304	=304	=304
8G	2e-	2g	2gg
8G	.	.	.
8G	.	.	.
8G	.	.	.
=305	=305	=305	=305
8G	2d	2f	2b
8G	.	.	.
8G	.	.	.
8G	.	.	.
=306	=306	=306	=306
[2A-	8c	8e-	2cc
.	8B	8d	.
.	8c	8e-	.
.	8d-	8f	.
=307	=307	=307	=307
4A-]	8e-	8g-	2c
.	8g-	8b-	.
4r	8f	8a-	.
.	8e-	8g-	.
=308	=308	=308	=308
2D-	8d-	8f	4d-
.	8A-	8f 8d-	.
.	8A-	8f 8d-	4r
.	8A-	8f 8d-	.
=309	=309	=309	=309
2AA-	8r	8r	2r
.	8A-	8e- 8c	.
.	8A-	8e- 8c	.
.	8A-	8e- 8c	.
=310	=310	=310	=310
4FF	8r	8r	2ddd-
.	8A-	8f 8d-	.
8r	8A-	8f 8d-	.
8FF	8A-	8f 8d-	.
=311	=311	=311	=311
8AA-	8r	8r	2aa-
8C	8A-	8g- 8e-	.
8E-	8A-	8g- 8e-	.
8C	8A-	8g- 8e-	.
=312	=312	=312	=312
2D-	8r	8r	4ff
.	8a-	8f 8d-	.
.	8a-	8f 8d-	8r
.	8a-	8f 8d-	8ff
=313	=313	=313	=313
2AA-	8r	8r	8aa-
.	8a-	8e- 8c	8ccc
.	8a-	8e- 8c	8eee-
.	8a-	8e- 8c	8ccc
=314	=314	=314	=314
4FF	8r	8r	2ddd-
.	8a-	8f 8d-	.
8r	8a-	8f 8d-	.
8FF	8a-	8f 8d-	.
=315	=315	=315	=315
8AA-	8r	8r	2aa-
8C	8a-	8g- 8e-	.
8E-	8a-	8g- 8e-	.
8C	8a-	8g- 8e-	.
=316	=316	=316	=316
2D-	8r	8r	4ff
.	8a-	8f 8d-	.
.	8a-	8f 8d-	8r
.	8a-	8f 8d-	8ff
=317	=317	=317	=317
2AA-	8r	8r	8aa-
.	8a-	8e- 8c	8ccc
.	8a-	8e- 8c	8eee-
.	8a-	8e- 8c	8ccc
=318	=318	=318	=318
2FF	8r	8r	2ddd-
.	8a-	8f 8d-	.
.	8a-	8f 8d-	.
.	8a-	8f 8d-	.
=319	=319	=319	=319
2FF#	8r	8r	2ccc
.	8a	8e-	.
.	8a	8e-	.
.	8a	8e-	.
=320	=320	=320	=320
2GG	8r	8r	2gg
.	8g	8e-	.
.	8g	8e-	.
.	8g	8e-	.
=321	=321	=321	=321
2AA-	8r	8r	2b
.	8f	8d	.
.	8f	8d	.
.	8f	8d	.
=322	=322	=322	=322
2AA	8r	8r	2cc
.	8e-	8f#	.
.	8e-	8f#	.
.	8e-	8f#	.
=323	=323	=323	=323
2AA-	8r	8r	2f#
.	8E-	8c	.
.	8E-	8c	.
.	8E-	8c	.
=324	=324	=324	=324
8GG	2E	2c	2g
8GG	.	.	.
8GG	.	.	.
8GG	.	.	.
=325	=325	=325	=325
8GG	2F	2d	2B
8GG	.	.	.
8GG	.	.	.
8GG	.	.	.
=326	=326	=326	=326
4CC	4E	4c	16c
.	.	.	16B
.	.	.	16A
.	.	.	16G
4r	4r	4r	16A
.	.	.	16B
.	.	.	16c
.	.	.	16d
=327	=327	=327	=327
4C	4G	4c	16e
.	.	.	16d
.	.	.	16c
.	.	.	16B
4r	4r	4r	16c
.	.	.	16d
.	.	.	16e
.	.	.	16f
=328	=328	=328	=328
4CC	4c	4e	16a
.	.	.	16g
.	.	.	16f
.	.	.	16e
4r	4r	4r	16f
.	.	.	16g
.	.	.	16a
.	.	.	16b
=329	=329	=329	=329
4C	4e	4g	16cc
.	.	.	16b
.	.	.	16a
.	.	.	16g
4r	4r	4r	16a
.	.	.	16b
.	.	.	16cc
.	.	.	16dd
=330	=330	=330	=330
4CC	4g	4cc	16ee
.	.	.	16dd
.	.	.	16cc
.	.	.	16b
4r	4r	4r	16cc
.	.	.	16dd
.	.	.	16ee
.	.	.	16ff
=331	=331	=331	=331
2r	4r	8r	[2gg
.	.	8e	.
.	8e	8ee	.
.	8e	8dd	.
=332	=332	=332	=332
2r	8e	4cc#	4gg]
.	8A	.	.
.	8d	4cc	4ff#
.	8d	.	.
=333	=333	=333	=333
4r	8d	4b	4ff
.	8G	.	.
8C	8G	8b-	8ee
8C	8c	8b-	8ee
=334	=334	=334	=334
8C	8r	8b-	8ee
8FF	8c	8a	8ff
8BB	8F#	8a	8dd#
8BB	8B	8a	8dd#
=335	=335	=335	=335
8BB	8r	8a	8dd#
8EE	8b	8g#	8ee
8A	8e	8gg	8ccc#
8A	8a	8gg	8ccc#
=336	=336	=336	=336
8A	8r	8gg	8ccc#
8D	8a	8ff#	8ddd
8G	8d	8ff	8bb
8G	8g	8ff	8bb
=337	=337	=337	=337
8G	8r	8ff	8bb
8C	8g	8ee	8ccc
8A	8c	8ee-	8ff#
8A	8cc	8ee-	8ff#
=338	=338	=338	=338
8G	4.cc	4.ee	4.gg
8G	.	.	.
8G	.	.	.
8G	8ee	8gg	8ccc
=339	=339	=339	=339
8G	4.g	4.cc	4.ee
8G	.	.	.
8G	.	.	.
8G	8f	16dd	16ff
.	.	16b	16dd
=340	=340	=340	=340
4C	4e	4cc	4cc
4r	4r	4r	4r
=341	=341	=341	=341
2f	4g	4b	16cc#
.	.	.	16dd
.	.	.	16ee
.	.	.	16ff
.	4b	4dd	16ff#
.	.	.	16gg
.	.	.	16aa
.	.	.	16gg
=342	=342	=342	=342
4e	4cc	4ee	4gg
8A	8e	8cc	8ccc
8r	8r	8r	8r
=343	=343	=343	=343
4F	4a	4cc	4dd
8G	8d	8b	8gg
8r	8r	8r	8r
=344	=344	=344	=344
[4A	4b	4dd	4ff
8A]	8cc	8cc	8ee
8r	8r	8r	8r
=345	=345	=345	=345
2FF	4F	4A	16c#
.	.	.	16d
.	.	.	16e
.	.	.	16f
.	4D	4B	16f#
.	.	.	16g
.	.	.	16a
.	.	.	16g
=346	=346	=346	=346
4EE	4C	4c	4g
8FF#	8E-	8A	8cc
8r	8r	8r	8r
=347	=347	=347	=347
2GG	4E	4G	4c
.	4F	4B	4d
=348	=348	=348	=348
8C	8E	8c	8c
4.r	8r	8r	8r
.	8A	8c	8e
.	8A	8r	8r
=349	=349	=349	=349
2r	8A	8d	8f
.	8D	8r	8r
.	8G	8B	8d
.	8G	8r	8r
=350	=350	=350	=350
4r	8G	8c	8e
.	8C	8r	8r
8AA	8A	8e	8cc
8AA	8r	8r	8r
=351	=351	=351	=351
8AA	8A	8f	8dd
8DD	8r	8r	8r
8GG	8G	8d	8b
8GG	8r	8r	8r
=352	=352	=352	=352
8GG	8G	8e	8cc
8CC	8r	8r	8r
8FF#	8e-	8cc	8aa
8r	8r	8r	8aa
=353	=353	=353	=353
8GG	8d	8cc	8aa
8r	8r	8r	8dd
8GG	8f	8b	8gg
8r	8r	8r	8gg
=354	=354	=354	=354
8CC	8e	8cc	8gg
4.r	8r	8r	8cc
.	8c	8c	8cc
.	8B	8d	8cc
=355	=355	=355	=355
8G	8B-	8e	8cc
8F	8A	8f	8cc
8E	8G	8g	8cc
8D	8F	8a	8cc
=356	=356	=356	=356
4C	4E	4b-	8dd
.	.	.	8cc
4r	8cc	8cc	8ccc
.	8b	8dd	8ccc
=357	=357	=357	=357
8g	8b-	8ee	8ccc
8f	8a	8ff	8ccc
8e	8g	8gg	8ccc
8d	8f	8aa	8ccc
=358	=358	=358	=358
4c	4e	4bb-	8ddd
.	.	.	8ccc
4r	4r	4r	8ccc
.	.	.	8ccc
=359	=359	=359	=359
2r	2r	2r	8ccc
.	.	.	8bb
.	.	.	8bb
.	.	.	8bb-
=360	=360	=360	=360
2c#	2ee	2gg	8bb-
.	.	.	8aa
.	.	.	8aa
.	.	.	8aa
=361	=361	=361	=361
4c	4ee-	4ff#	8aa
.	.	.	8aa
4r	4r	4r	8aa
.	.	.	8aa-
=362	=362	=362	=362
4B	4dd	4ff	8aa-
.	.	.	8gg
4c	[4cc	[4ee	8gg
.	.	.	8gg
=363	=363	=363	=363
4A	4cc]	4ee]	8gg
.	.	.	8ff
4B	[4b	[4dd	8ff
.	.	.	8ff
=364	=364	=364	=364
4G#	4b]	4dd]	8ff
.	.	.	8ee
4A	[4a	[4cc	8ee
.	.	.	8ee
=365	=365	=365	=365
4F	2a]	2cc]	8ee
.	.	.	8dd
4F#	.	.	8dd
.	.	.	8dd
=366	=366	=366	=366
4G	4g	4b	8ee
.	.	.	8dd
4r	4r	4r	8dd
.	.	.	8dd
=367	=367	=367	=367
4A	4c	4f#	8ee
.	.	.	8dd
4r	4r	4r	8dd
.	.	.	8dd
=368	=368	=368	=368
4G	4B	4g	8ee
.	.	.	8dd
4r	4r	4r	8dd
.	.	.	8dd
=369	=369	=369	=369
4FF#	4A	4c	8ee-
.	.	.	8dd
4r	4r	4r	8dd
.	.	.	8dd
=370	=370	=370	=370
4GG	4G	4B	8ee-
.	.	.	8dd
4r	4r	4r	8dd
.	.	.	8dd
=371	=371	=371	=371
2r	2r	2r	4r
.	.	.	8gg
.	.	.	8gg
=372	=372	=372	=372
8C	16e	16g	4.gg
.	16c	16e	.
8C	16e	16g	.
.	16c	16e	.
8C	8e	8g	.
8r	8r	8r	8ccc
=373	=373	=373	=373
8GG	16d	16f	4.bb
.	16B	16d	.
8GG	16d	16f	.
.	16B	16d	.
8GG	8d	8f	.
8r	8r	8r	8ff
=374	=374	=374	=374
8C	2r	8r	8ee
8E	.	8g	8cc
8F	.	8c	8a
8F#	.	8a	8dd
=375	=375	=375	=375
8G	4.r	8d	8b
8G#	.	8b	8ee
8A	.	8e	8cc
8AA	8c	8cc	8ff
=376	=376	=376	=376
4BB	8f	8g	8dd
.	8d	8ff	8gg
4r	4r	4r	4r
=377	=377	=377	=377
2r	2r	2r	4r
.	.	.	8gg
.	.	.	8gg
=378	=378	=378	=378
8c	[2e	8r	4.gg
8c	.	8cc	.
8c	.	8b	.
8c	.	8b-	8gg#
=379	=379	=379	=379
8F	8e]	4.a	4.aa
8F	8c#	.	.
8F	8d	.	.
8F	8a	16d	16ff
.	.	16f	16dd
=380	=380	=380	=380
8G	4.g	16e	4.cc
.	.	16g	.
8G	.	16e	.
.	.	16g	.
8G	.	16e	.
.	.	16g	.
8G	8B	16f	16ee
.	.	16g	16dd
=381	=381	=381	=381
4C	8c	8e	8cc
.	8e	8g	8r
4r	8d	8f	[4gg
.	8c	8e	.
=382	=382	=382	=382
2F	8B	8d	8gg]
.	8G	8B	16aa
.	.	.	16gg
.	8A	8c	[4gg
.	8B	8d	.
=383	=383	=383	=383
4E	8c	8e	8gg]
.	8e	8g	16ff#
.	.	.	16gg
4r	8d	8f	[4gg
.	8c	8e	.
=384	=384	=384	=384
2FF	8B	8d	8gg]
.	8G	8B	16aa
.	.	.	16gg
.	8A	8c	[4gg
.	8B	8d	.
=385	=385	=385	=385
4EE	8c	8e	8gg]
.	8e	8g	16ff#
.	.	.	16gg
4r	8d	8f	[4gg
.	8c	8e	.
=386	=386	=386	=386
2F	8B	8d	8gg]
.	8G	8B	16aa
.	.	.	16gg
.	8A	8c	[4gg
.	8B	8d	.
=387	=387	=387	=387
8E	8c	8e	8gg]
8r	8r	8r	8gg
8B	8f	8dd	8r
8r	8r	8r	8gg
=388	=388	=388	=388
8.c	8.e	8.ee	8.gg
16B	16d	16ff	16aa
8.c	8.e	8.ee	8.gg
16B	16d	16ff	16aa
=389	=389	=389	=389
16c	16e	16ee	16gg
16B	16d	16ff	16aa
16c	16e	16ee	16gg
16B	16d	16ff	16aa
16c	16e	16ee	16gg
16B	16d	16ff	16aa
16c	16e	16ee	16gg
16B	16d	16ff	16aa
=390	=390	=390	=390
16c	16e	16ee	16gg
16B	16d	16ff	16aa
16c	16e	16ee	16gg
16B	16d	16ff	16aa
16c	16e	16ee	16gg
16B	16d	16ff	16aa
16c	16e	16ee	16gg
16B	16d	16ff	16aa
=391	=391	=391	=391
8c	16e	16ee	8gg
.	16g	16ee	.
8C	16g	16ee	8eee
.	16g	16ee	.
8D	16f	16b	8r
.	16f	16b	.
8D	16f	16b	8ddd
.	16f	16b	.
=392	=392	=392	=392
8E	16e	16cc	8r
.	16e	16cc	.
8E	16e	16cc	8ccc
.	16e	16cc	.
8F	16d	16cc	8r
.	16d	16cc	.
8F	16d	16cc	8aa
.	16d	16cc	.
=393	=393	=393	=393
8G	16e	16cc	8r
.	16e	16cc	.
8G	16e	16cc	8gg
.	16e	16cc	.
8GG	16d	16f	8r
.	16d	16f	.
8GG	16d	16f	8b
.	16d	16f	.
=394	=394	=394	=394
8C	8c	8e	4cc
8E	8G	8r	.
8D	8F	[4g	4r
8C	8E	.	.
=395	=395	=395	=395
8BB	8D	8g]	2fff
8GG	8B	16a	.
.	.	16g	.
8AA	8c	[4g	.
8BB	8d	.	.
=396	=396	=396	=396
8C	8e	8g]	4eee
8E	8G	16f#	.
.	.	16g	.
8D	8F	[4g	4r
8C	8E	.	.
=397	=397	=397	=397
8BB	8D	8g]	2ff
8GG	8B	16a	.
.	.	16g	.
8AA	8c	[4g	.
8BB	8d	.	.
=398	=398	=398	=398
8C	8e	8g]	4ee
8E	8G	16f#	.
.	.	16g	.
8D	8F	[4g	4r
8C	8E	.	.
=399	=399	=399	=399
8BB	8D	8g]	2f
8GG	8B	16a	.
.	.	16g	.
8AA	8c	4g	.
8BB	8d	.	.
=400	=400	=400	=400
8C	8c	8g	8e
8r	8r	8r	8gg
8B	8d	8ff	8r
8r	8r	8r	8gg
=401	=401	=401	=401
8.c	8.e	8.ee	8.gg
16B	16d	16ff	16aa
8.c	8.e	8.ee	8.gg
16B	16d	16ff	16aa
=402	=402	=402	=402
16c	16e	16ee	16gg
16B	16d	16ff	16aa
16c	16e	16ee	16gg
16B	16d	16ff	16aa
16c	16e	16ee	16gg
16B	16d	16ff	16aa
16c	16e	16ee	16gg
16B	16d	16ff	16aa
=403	=403	=403	=403
16c	16e	16ee	16gg
16B	16d	16ff	16aa
16c	16e	16ee	16gg
16B	16d	16ff	16aa
16c	16e	16ee	16gg
16B	16d	16ff	16aa
16c	16e	16ee	16gg
16B	16d	16ff	16aa
=404	=404	=404	=404
8c	16e	16ee	8gg
.	16e	16gg	.
8C	16e	16gg	8eee
.	16e	16gg	.
8D	16g	16gg	8r
.	16b	16ff	.
8D	16b	16ff	8ddd
.	16b	16ff	.
=405	=405	=405	=405
8E	16b	16ff	8r
.	16cc	16ee	.
8E	16cc	16ee	8ccc
.	16cc	16ee	.
8F	16g	16ee	8r
.	16f	16dd	.
8F	16f	16dd	8aa
.	16f	16dd	.
=406	=406	=406	=406
8G	16f	16dd	8r
.	16e	16cc	.
8G	16e	16cc	8gg
.	16e	16cc	.
8GG	16e	16g	8r
.	16d	16f	.
8GG	16d	16f	8b
.	16d	16f	.
=407	=407	=407	=407
8C	8c	8e	4cc
4.r	8r	8r	.
.	8A	4g	4cc#
.	8A	.	.
=408	=408	=408	=408
4r	8A	4f	4dd
.	8D	.	.
8C	4r	4b-	4ee
8C	.	.	.
=409	=409	=409	=409
8C	4r	4a	4ff
8FF	.	.	.
8F	4c	4r	8aa
8r	.	.	8aa
=410	=410	=410	=410
8G	4B	4r	8aa
8r	.	.	8dd
8GG	8b 8f	8gg	4r
8r	8r	8gg	.
=411	=411	=411	=411
8C	8cc 8e	8gg	4cc
4.r	8r	8cc	.
.	8A	4g	4cc#
.	8A	.	.
=412	=412	=412	=412
4r	8A	4f	4dd
.	8D	.	.
8C	4r	4b-	4ee
8C	.	.	.
=413	=413	=413	=413
8C	4r	4a	4ff
8FF	.	.	.
8F	4c	4r	8aa
8r	.	.	8aa
=414	=414	=414	=414
8G	4B	4r	8aa
8r	.	.	8dd
8GG	8b 8f	8gg	4r
8r	8r	8gg	.
=415	=415	=415	=415
8C	8cc 8e	8gg	4r
8r	8r	8cc	.
8AA	8A	8a	8a
8AA	8A	8a	8a
=416	=416	=416	=416
8AA	8A	8a	8a
8DD	8D	8d	8d
8GG	8G	8g	8g
8GG	8G	8g	8g
=417	=417	=417	=417
8GG	8G	8g	8g
8CC	8C	8c	8c
8GG	8G	8g	8b 8d 8G
8r	8G	8g	8r
=418	=418	=418	=418
8C	8G	8g	8cc 8e 8G
8r	8C	8c	8r
8GG	8g	8gg	8bb 8dd 8g
8r	8g	8gg	8r
=419	=419	=419	=419
8CC	8g	8gg	8ccc 8ee 8g
4.r	8c	8cc	4.r
.	4r	4r	.
==	==	==	==
*-	*-	*-	*-
!!!RWG1: This file contains only pitch and duration data.
!!!RWG2: Transposing instruments are not transposed.
!!!RWG3: Spines may have incompatible meters.
!!!RWG4: Durations of rests and tied notes may be interpreted.
!!!RWG: Key is interpreted using the Humdrum key tool.
!!!AFT: stage1
!!!END: 1997/04/15
!!!KEY: 3577845674
!!!EMD: Converted from MuseData to Humdrum Dec 16, 2000, by Andreas Kornstaedt using muse2kern.
!!!EMD: Manual editing by Craig Sapp, Nov 2001
